assets/icons/qvision/local_car_wash.svg

<svg width="24" height="24" viewBox="0 0 24 24" fill="none" xmlns="http://www.w3.org/2000/svg">
<g clip-path="url(#clip0_147_5383)">
<path d="M17 4.99999C17.83 4.99999 18.5 4.32999 18.5 3.49999C18.5 2.49999 17 0.799988 17 0.799988C17 0.799988 15.5 2.49999 15.5 3.49999C15.5 4.32999 16.17 4.99999 17 4.99999ZM12 4.99999C12.83 4.99999 13.5 4.32999 13.5 3.49999C13.5 2.49999 12 0.799988 12 0.799988C12 0.799988 10.5 2.49999 10.5 3.49999C10.5 4.32999 11.17 4.99999 12 4.99999ZM7 4.99999C7.83 4.99999 8.5 4.32999 8.5 3.49999C8.5 2.49999 7 0.799988 7 0.799988C7 0.799988 5.5 2.49999 5.5 3.49999C5.5 4.32999 6.17 4.99999 7 4.99999ZM18.92 8.00999C18.72 7.41999 18.16 6.99999 17.5 6.99999H6.5C5.84 6.99999 5.29 7.41999 5.08 8.00999L3 14V22C3 22.55 3.45 23 4 23H5C5.55 23 6 22.55 6 22V21H18V22C18 22.55 18.45 23 19 23H20C20.55 23 21 22.55 21 22V14L18.92 8.00999ZM6.5 18C5.67 18 5 17.33 5 16.5C5 15.67 5.67 15 6.5 15C7.33 15 8 15.67 8 16.5C8 17.33 7.33 18 6.5 18ZM17.5 18C16.67 18 16 17.33 16 16.5C16 15.67 16.67 15 17.5 15C18.33 15 19 15.67 19 16.5C19 17.33 18.33 18 17.5 18ZM5 13L6.5 8.49999H17.5L19 13H5Z" fill="#323232"/>
</g>
<defs>
<clipPath id="clip0_147_5383">
<rect width="24" height="24" fill="white"/>
</clipPath>
</defs>
</svg>

<svg xmlns="http://www.w3.org/2000/svg" height="24" viewBox="0 0 24 24" width="24"><path d="M0 0h24v24H0z" fill="none"/><path d="M17 5c.83 0 1.5-.67 1.5-1.5 0-1-1.5-2.7-1.5-2.7s-1.5 1.7-1.5 2.7c0 .83.67 1.5 1.5 1.5zm-5 0c.83 0 1.5-.67 1.5-1.5 0-1-1.5-2.7-1.5-2.7s-1.5 1.7-1.5 2.7c0 .83.67 1.5 1.5 1.5zM7 5c.83 0 1.5-.67 1.5-1.5C8.5 2.5 7 .8 7 .8S5.5 2.5 5.5 3.5C5.5 4.33 6.17 5 7 5zm11.92 3.01C18.72 7.42 18.16 7 17.5 7h-11c-.66 0-1.21.42-1.42 1.01L3 14v8c0 .55.45 1 1 1h1c.55 0 1-.45 1-1v-1h12v1c0 .55.45 1 1 1h1c.55 0 1-.45 1-1v-8l-2.08-5.99zM6.5 18c-.83 0-1.5-.67-1.5-1.5S5.67 15 6.5 15s1.5.67 1.5 1.5S7.33 18 6.5 18zm11 0c-.83 0-1.5-.67-1.5-1.5s.67-1.5 1.5-1.5 1.5.67 1.5 1.5-.67 1.5-1.5 1.5zM5 13l1.5-4.5h11L19 13H5z"/></svg>
